svg/multicast.svg

<svg xmlns="http://www.w3.org/2000/svg" viewBox="0 0 24 24"><path d="M17 2v2h-5a2 2 0 0 0-2 2v3h2V6h5v2l3-3zm0 7v2H6.73c-.36-.62-1.02-1-1.73-1-1.1 0-2 .9-2 2s.9 2 2 2c.71 0 1.37-.38 1.73-1H17v2l3-3zm-7 6v3a2 2 0 0 0 2 2h5v2l3-3-3-3v2h-5v-3z"/></svg>

<svg xmlns="http://www.w3.org/2000/svg" id="mdi-multicast" viewBox="0 0 24 24"><path d="M17 2V4H12C10.9 4 10 4.89 10 6V9H12V6H17V8L20 5L17 2M17 9V11H6.73C6.37 10.38 5.71 10 5 10C3.9 10 3 10.9 3 12S3.9 14 5 14C5.71 14 6.37 13.62 6.73 13H17V15L20 12L17 9M10 15V18C10 19.11 10.9 20 12 20H17V22L20 19L17 16V18H12V15H10Z" /></svg>
